public/images/technologies/ar_vr/features/icon_1.svg

<svg width="75" height="76" viewBox="0 0 75 76" fill="none" xmlns="http://www.w3.org/2000/svg">
<rect y="0.5" width="75" height="75" rx="8" fill="url(#paint0_linear_2582_16966)"/>
<path fill-rule="evenodd" clip-rule="evenodd" d="M36.2871 12.5558C36.2189 12.5834 36.0979 12.7315 36.0185 12.8852C35.8089 13.2904 35.8077 17.4508 36.017 17.8556C36.3263 18.4538 37.0871 18.3791 37.3354 17.7261C37.3944 17.5708 37.4369 16.5612 37.4369 15.3118C37.4369 13.0745 37.3764 12.6983 36.9929 12.5511C36.8104 12.4811 36.4673 12.4833 36.2871 12.5558ZM29.129 16.6753C28.9882 16.7893 28.9076 16.9595 28.9093 17.1392C28.9127 17.5127 29.4977 19.0071 29.7321 19.2416C30.0114 19.5209 30.5393 19.4842 30.7879 19.168C30.8992 19.0265 30.9903 18.8551 30.9903 18.7871C30.9903 18.5067 30.2797 16.8241 30.0946 16.6661C29.8345 16.4442 29.4095 16.4482 29.129 16.6753ZM43.1715 16.6676C43.0106 16.8454 42.3206 18.563 42.3206 18.7857C42.3206 18.8545 42.4117 19.0265 42.5231 19.168C42.7707 19.4828 43.2995 19.5209 43.5765 19.2439C43.8072 19.0132 44.3934 17.5143 44.3996 17.1392C44.4087 16.5933 43.5405 16.2599 43.1715 16.6676ZM20.6368 19.1324C20.5207 19.2485 20.4414 19.4579 20.4414 19.6487C20.4414 19.935 20.6314 20.1586 22.1946 21.7131C23.8934 23.4024 23.9577 23.4546 24.2702 23.3941C24.4476 23.3598 24.6695 23.2391 24.7636 23.1259C25.1365 22.6768 25.0357 22.5186 23.2043 20.6769C21.6622 19.1261 21.4393 18.937 21.1531 18.937C20.9623 18.937 20.7529 19.0162 20.6368 19.1324ZM50.1067 20.6769C48.2753 22.5186 48.1745 22.6768 48.5474 23.1259C48.6413 23.2391 48.8634 23.3598 49.0407 23.3941C49.3532 23.4546 49.4176 23.4024 51.1163 21.7131C52.6795 20.1586 52.8695 19.935 52.8695 19.6487C52.8695 19.2306 52.5759 18.937 52.1578 18.937C51.8717 18.937 51.6488 19.1261 50.1067 20.6769ZM34.8221 20.1124C33.0345 20.3377 31.2464 20.8996 29.5139 21.7807C28.1713 22.4636 27.8647 22.7157 27.8647 23.1368C27.8647 23.4606 28.2315 23.9184 28.4909 23.9184C28.5717 23.9184 29.222 23.6132 29.9361 23.2401C32.6172 21.8394 35.2995 21.2867 38.0229 21.5736C44.2998 22.2347 49.27 26.7152 50.5921 32.9045C50.8459 34.092 50.8428 37.2935 50.5868 38.4668C50.2991 39.7862 49.9783 40.6799 49.3053 42.0371C48.2928 44.0792 46.9274 45.7058 44.9924 47.1749C44.5011 47.5479 43.922 48.083 43.7055 48.3638C43.2172 48.997 42.7384 49.9944 42.6547 50.5526L42.5915 50.9744H41.2886C39.8883 50.9744 39.5739 51.0502 39.4011 51.4292C39.2486 51.764 39.2642 51.8885 39.4952 52.1821C39.6972 52.4389 39.7007 52.4395 41.1068 52.4395H42.516L42.5138 54.4662C42.5115 56.6384 42.4397 57.0194 41.9501 57.4546C41.4721 57.8797 41.2225 57.9007 36.6555 57.9007C32.0885 57.9007 31.8388 57.8797 31.3608 57.4546C30.8713 57.0194 30.7995 56.6384 30.7971 54.4662L30.795 52.4395H34.1159C37.3067 52.4395 37.4445 52.4319 37.6322 52.2441C37.9231 51.9533 37.8927 51.4305 37.5702 51.1768C37.3214 50.9811 37.2034 50.9744 34.0162 50.9744H30.7195L30.6563 50.5526C30.5726 49.9947 30.0939 48.9971 29.6064 48.3649C29.3903 48.0847 28.7892 47.5296 28.2706 47.1313C25.154 44.7382 23.284 41.687 22.6416 37.9464C22.4515 36.8397 22.4493 34.5906 22.6371 33.4417C23.0786 30.7413 24.3584 28.1376 26.2589 26.0738C26.8673 25.4131 26.9857 25.23 26.9857 24.9504C26.9857 24.7059 26.9167 24.5621 26.7283 24.4139C26.2425 24.0317 25.956 24.175 24.9629 25.2967C22.9945 27.5199 21.6877 30.2249 21.1697 33.1487C20.9179 34.5699 20.9351 36.9003 21.2084 38.3919C21.9376 42.3721 24.0184 45.7577 27.2452 48.214C28.2241 48.9591 28.5966 49.3836 28.9779 50.1884L29.281 50.8279L29.3299 53.9534L29.3787 57.079L29.6375 57.5674C29.9798 58.2131 30.5362 58.7612 31.1368 59.0445C31.4055 59.1711 31.6692 59.2754 31.7229 59.276C31.7766 59.2766 31.9501 59.525 32.1083 59.8279C32.9255 61.3917 34.8115 62.5 36.6555 62.5C38.5008 62.5 40.3796 61.401 41.1943 59.8449C41.4401 59.3755 41.5323 59.2903 41.9597 59.1385C42.5631 58.9242 43.3277 58.2241 43.6734 57.5694L43.9323 57.079L43.9811 53.9534L44.0299 50.8279L44.3024 50.2459C44.7042 49.388 44.9504 49.1115 46.2136 48.1002C48.4166 46.3364 49.6854 44.7437 50.8586 42.2695C53.5511 36.591 52.5196 29.858 48.232 25.1239C46.0042 22.6642 42.9516 20.956 39.6149 20.3019C38.4092 20.0656 35.962 19.9688 34.8221 20.1124ZM34.6214 26.3119C34.4933 26.4747 34.3914 26.8422 34.3166 27.4107C34.1454 28.7107 34.1936 28.6264 33.4534 28.9243C33.0863 29.072 32.7497 29.1929 32.7052 29.1929C32.6608 29.1929 32.2407 28.9072 31.7717 28.558C31.1981 28.1309 30.8296 27.9231 30.6456 27.9231C30.4264 27.9231 30.1234 28.1693 29.1144 29.1677C28.4227 29.8522 27.8327 30.5074 27.8035 30.6237C27.7366 30.8904 27.854 31.1094 28.5669 32.048L29.1404 32.803L28.9554 33.1713C28.8535 33.3737 28.717 33.7043 28.6518 33.9057C28.5867 34.1072 28.4925 34.272 28.4426 34.272C28.3927 34.272 27.9016 34.3383 27.3513 34.4194C25.8914 34.6343 25.9112 34.6022 25.9112 36.755C25.9112 39.0082 25.8418 38.9144 27.6893 39.1595L28.5396 39.2723L28.6549 39.6291C28.7183 39.8254 28.8535 40.1516 28.9554 40.3541L29.1404 40.7223L28.5669 41.4773C27.9177 42.3322 27.7671 42.5865 27.7671 42.8284C27.7671 42.9215 28.3473 43.5837 29.0566 44.2999C30.1281 45.3821 30.3945 45.6022 30.6326 45.6022C30.8334 45.6022 31.1811 45.4071 31.7953 44.9499C32.6497 44.3136 32.6791 44.3005 32.9786 44.4235C33.1475 44.4929 33.4713 44.6208 33.698 44.7078C34.1526 44.8824 34.1349 44.8408 34.3194 46.1652C34.3912 46.6808 34.5009 47.0601 34.6229 47.2153L34.8138 47.4581H36.6555H38.4971L38.6884 47.2149C38.8211 47.0461 38.9176 46.674 39.0036 45.9998C39.0718 45.4652 39.1536 44.9923 39.1856 44.9488C39.2423 44.8717 40.1482 44.463 40.4876 44.3613C40.5962 44.3288 40.9687 44.5426 41.5245 44.9564C42.1316 45.4085 42.4779 45.6022 42.6784 45.6022C42.9164 45.6022 43.1829 45.3821 44.2544 44.2999C44.9636 43.5837 45.5439 42.9215 45.5439 42.8284C45.5439 42.5865 45.3933 42.3322 44.744 41.4773L44.1706 40.7223L44.3556 40.3541C44.4575 40.1516 44.5918 39.828 44.6541 39.635L44.7675 39.2842L45.8632 39.1288C47.4311 38.9067 47.3997 38.955 47.3997 36.7627C47.3997 34.5854 47.4313 34.6344 45.8857 34.4096C45.2948 34.3236 44.8057 34.2466 44.7987 34.2383C44.7918 34.23 44.651 33.8991 44.4859 33.5033L44.1855 32.7834L44.7515 32.0381C45.4567 31.1097 45.5743 30.8898 45.5075 30.6237C45.4783 30.5074 44.8883 29.8522 44.1966 29.1677C43.1876 28.1693 42.8846 27.9231 42.6653 27.9231C42.4809 27.9231 42.1095 28.1334 41.5245 28.5689C40.9687 28.9828 40.5962 29.1966 40.4876 29.1641C40.1482 29.0624 39.2423 28.6536 39.1856 28.5765C39.1536 28.5331 39.0708 28.0526 39.0014 27.5089C38.8132 26.0313 38.8726 26.0673 36.6182 26.0673H34.8138L34.6214 26.3119ZM18.5228 27.4339C18.2727 27.5348 17.9996 27.9006 17.9996 28.1348C17.9996 28.4458 18.434 28.7924 19.1986 29.0913C20.08 29.4359 20.5343 29.4679 20.7744 29.2027C20.9938 28.9602 21.0033 28.4592 20.7929 28.2267C20.6651 28.0855 18.8842 27.3124 18.7576 27.3432C18.7436 27.3466 18.638 27.3875 18.5228 27.4339ZM53.6021 27.688C53.1186 27.8761 52.6387 28.1135 52.5357 28.2153C52.2992 28.4495 52.2946 28.9354 52.5265 29.1916C52.7774 29.4688 53.218 29.441 54.1123 29.0913C54.8901 28.7872 55.3114 28.4455 55.3114 28.1185C55.3114 27.8905 54.9396 27.4686 54.6765 27.3982C54.569 27.3694 54.0856 27.4998 53.6021 27.688ZM37.5363 27.6545C37.5422 28.0656 37.8338 29.6199 37.9258 29.7308C37.9867 29.804 38.3257 29.9575 38.6794 30.0718C39.0331 30.186 39.5782 30.4086 39.8908 30.5664C40.2034 30.7242 40.5666 30.8533 40.6977 30.8533C40.8363 30.8533 41.2674 30.6078 41.7267 30.2673C42.1614 29.945 42.5511 29.6812 42.5928 29.6812C42.6345 29.6812 42.9252 29.9406 43.239 30.2576L43.8093 30.834L43.2258 31.6007C42.453 32.6159 42.4351 32.6895 42.7943 33.3798C42.9562 33.6906 43.1833 34.2264 43.2992 34.5706C43.4152 34.9147 43.5508 35.2724 43.6006 35.3656C43.7034 35.5576 44.1512 35.6905 45.0067 35.783C45.9831 35.8886 45.9346 35.8374 45.9346 36.7627C45.9346 37.7029 46.0372 37.6154 44.7263 37.7925C43.7083 37.9299 43.5794 38.0263 43.3479 38.8226C43.2574 39.1337 43.0312 39.6905 42.8452 40.0599C42.6107 40.5255 42.5277 40.7969 42.5746 40.9448C42.6118 41.0621 42.9048 41.503 43.2258 41.9247L43.8093 42.6913L43.239 43.2677C42.9252 43.5848 42.6345 43.8441 42.5928 43.8441C42.5511 43.8441 42.1614 43.5804 41.7267 43.2581C41.2682 42.9181 40.8363 42.672 40.698 42.672C40.5671 42.672 40.1617 42.8222 39.7972 43.0058C39.4328 43.1893 38.8819 43.4129 38.573 43.5027C37.8949 43.6998 37.7922 43.8771 37.6267 45.1383L37.5143 45.9929H36.6555H35.7966L35.6843 45.1383C35.5181 43.8719 35.4126 43.6901 34.7297 43.4933C34.419 43.4037 33.8692 43.1823 33.5079 43.0012C33.1466 42.8202 32.7439 42.672 32.6129 42.672C32.4747 42.672 32.0428 42.9181 31.5843 43.2581C31.1495 43.5804 30.7598 43.8441 30.7181 43.8441C30.6764 43.8441 30.3857 43.5848 30.072 43.2677L29.5017 42.6913L30.0852 41.9247C30.4061 41.503 30.6992 41.0621 30.7364 40.9448C30.7833 40.7969 30.7002 40.5255 30.4657 40.0599C30.2797 39.6905 30.0535 39.1337 29.9631 38.8226C29.7316 38.0263 29.6027 37.9299 28.5846 37.7925C27.2737 37.6154 27.3764 37.7029 27.3764 36.7627C27.3764 35.8385 27.3241 35.8934 28.3043 35.7874C29.5982 35.6474 29.7028 35.5754 29.9833 34.6307C30.0657 34.353 30.2841 33.8261 30.4687 33.4598C30.7009 32.9986 30.7833 32.7282 30.7364 32.5805C30.6992 32.4632 30.4061 32.0223 30.0852 31.6007L29.5017 30.834L30.072 30.2576C30.3857 29.9406 30.6793 29.6812 30.7245 29.6812C30.7696 29.6812 31.153 29.945 31.5764 30.2673C32.0584 30.6343 32.4407 30.8533 32.5989 30.8533C32.738 30.8533 33.1075 30.7242 33.4202 30.5664C33.7327 30.4086 34.2839 30.1841 34.6449 30.0675C35.4287 29.8142 35.5153 29.6742 35.6843 28.3871L35.7966 27.5324H36.6655C37.2947 27.5324 37.535 27.5661 37.5363 27.6545ZM35.4529 32.1722C33.1239 32.8123 31.5743 35.1668 31.9635 37.4737C32.4357 40.274 35.1556 42.058 37.873 41.3502C40.1704 40.7518 41.7363 38.357 41.3455 36.0398C40.8815 33.2888 38.08 31.4499 35.4529 32.1722ZM37.9467 33.7715C38.5542 34.0324 39.2475 34.6825 39.57 35.2936C39.8011 35.7316 39.8297 35.8937 39.8297 36.7627C39.8297 37.6317 39.8011 37.7937 39.57 38.2317C39.2526 38.8331 38.5553 39.4929 37.9424 39.7714C37.2983 40.0642 36.0127 40.0642 35.3685 39.7714C34.7557 39.4929 34.0584 38.8331 33.741 38.2317C33.5099 37.7937 33.4812 37.6317 33.4812 36.7627C33.4812 35.8937 33.5099 35.7316 33.741 35.2936C34.1776 34.4664 34.9855 33.8309 35.9229 33.5775C36.3837 33.453 37.4411 33.5543 37.9467 33.7715ZM14.2347 34.6094C13.927 34.917 13.9213 35.3408 14.2209 35.6224C14.4406 35.8287 14.5162 35.8348 16.89 35.8348C19.3173 35.8348 19.3343 35.8333 19.5454 35.6087C19.8271 35.3088 19.816 34.9075 19.5179 34.6094L19.2782 34.3696H16.8763H14.4744L14.2347 34.6094ZM53.793 34.6094C53.4853 34.917 53.4796 35.3408 53.7792 35.6224C53.9989 35.8287 54.0745 35.8348 56.4483 35.8348C58.8756 35.8348 58.8926 35.8333 59.1037 35.6087C59.3854 35.3088 59.3744 34.9075 59.0763 34.6094L58.8366 34.3696H56.4346H54.0327L53.793 34.6094ZM39.6834 59.4623C39.6834 59.6704 38.571 60.5473 38.0471 60.7522C37.2632 61.0587 36.0477 61.0587 35.2639 60.7522C34.74 60.5473 33.6276 59.6704 33.6276 59.4623C33.6276 59.4121 34.9271 59.3744 36.6555 59.3744C38.3838 59.3744 39.6834 59.4121 39.6834 59.4623Z" fill="white"/>
<defs>
<linearGradient id="paint0_linear_2582_16966" x1="0" y1="39.0135" x2="75" y2="39.0135" gradientUnits="userSpaceOnUse">
<stop stop-color="#00469F"/>
<stop offset="1" stop-color="#1E79D6"/>
</linearGradient>
</defs>
</svg>

<svg xmlns="http://www.w3.org/2000/svg" width="75" height="76" fill="none" xmlns:v="https://vecta.io/nano"><rect y=".5" width="75" height="75" rx="8" fill="url(#A)"/><path fill-rule="evenodd" d="M36.287 12.556c-.068.028-.189.176-.269.329-.21.405-.211 4.566-.002 4.97.309.598 1.07.524 1.318-.13.059-.155.102-1.165.102-2.414 0-2.237-.061-2.613-.444-2.761-.182-.07-.526-.068-.706.005zm-7.158 4.12a.59.59 0 0 0-.22.464c.003.373.588 1.868.823 2.102a.74.74 0 0 0 1.056-.074c.111-.142.202-.313.202-.381 0-.28-.711-1.963-.896-2.121-.26-.222-.685-.218-.966.009zm14.043-.008c-.161.178-.851 1.895-.851 2.118 0 .069.091.241.203.382.248.315.776.353 1.053.076.231-.231.817-1.73.823-2.105.009-.546-.859-.879-1.228-.472zm-22.535 2.465c-.116.116-.195.325-.195.516 0 .286.19.51 1.753 2.064 1.699 1.689 1.763 1.741 2.076 1.681.177-.034.399-.155.493-.268.373-.449.272-.607-1.559-2.449-1.542-1.551-1.765-1.74-2.051-1.74-.191 0-.4.079-.516.195zm29.47 1.544c-1.831 1.842-1.932 2-1.559 2.449.094.113.316.234.493.268.313.06.377.008 2.076-1.681 1.563-1.555 1.753-1.778 1.753-2.064a.68.68 0 0 0-.712-.712c-.286 0-.509.189-2.051 1.74zm-15.285-.564c-1.788.225-3.576.787-5.308 1.668-1.343.683-1.649.935-1.649 1.356 0 .324.367.782.626.782.081 0 .731-.305 1.445-.678 2.681-1.401 5.363-1.953 8.087-1.667 6.277.661 11.247 5.142 12.569 11.331.254 1.188.251 4.389-.005 5.562-.288 1.319-.608 2.213-1.281 3.57-1.013 2.042-2.378 3.669-4.313 5.138-.491.373-1.07.908-1.287 1.189-.488.633-.967 1.631-1.051 2.189l-.063.422h-1.303c-1.4 0-1.715.076-1.888.455-.152.335-.137.459.094.753.202.257.206.257 1.612.257h1.409l-.002 2.027c-.002 2.172-.074 2.553-.564 2.988-.478.425-.728.446-5.295.446s-4.817-.021-5.295-.446c-.489-.435-.561-.816-.564-2.988l-.002-2.027h3.321c3.191 0 3.329-.008 3.516-.195.291-.291.261-.814-.062-1.067-.249-.196-.367-.202-3.554-.202H30.72l-.063-.422c-.084-.558-.562-1.555-1.05-2.188-.216-.28-.817-.835-1.336-1.234-3.117-2.393-4.987-5.444-5.629-9.185-.19-1.107-.192-3.356-.005-4.505.442-2.7 1.721-5.304 3.622-7.368.608-.661.727-.844.727-1.123 0-.244-.069-.388-.257-.536-.486-.382-.772-.239-1.765.883a16.04 16.04 0 0 0-3.793 7.852c-.252 1.421-.235 3.752.039 5.243.729 3.98 2.81 7.366 6.037 9.822.979.745 1.351 1.17 1.733 1.974l.303.639.049 3.126.049 3.126.259.488c.342.646.899 1.194 1.499 1.477.269.127.532.231.586.232s.227.249.385.552c.817 1.564 2.703 2.672 4.547 2.672s3.724-1.099 4.539-2.655c.246-.469.338-.555.765-.706.603-.214 1.368-.914 1.714-1.569l.259-.49.049-3.126.049-3.126.273-.582c.402-.858.648-1.134 1.911-2.146 2.203-1.764 3.472-3.357 4.645-5.831 2.692-5.678 1.661-12.411-2.627-17.146-2.228-2.46-5.28-4.168-8.617-4.822-1.206-.236-3.653-.333-4.793-.189zm-.201 6.2c-.128.163-.23.53-.305 1.099-.171 1.3-.123 1.216-.863 1.514-.367.148-.704.269-.748.269s-.465-.286-.933-.635c-.574-.427-.942-.635-1.126-.635-.219 0-.522.246-1.531 1.245-.692.684-1.282 1.34-1.311 1.456-.067.267.05.486.763 1.424l.573.755-.185.368c-.102.202-.238.533-.304.734s-.159.366-.209.366-.541.066-1.091.147c-1.46.215-1.44.183-1.44 2.336 0 2.253-.069 2.159 1.778 2.404l.85.113.115.357a6.19 6.19 0 0 0 .3.725l.185.368-.573.755c-.649.855-.8 1.109-.8 1.351 0 .093.58.755 1.29 1.471 1.072 1.082 1.338 1.302 1.576 1.302.201 0 .549-.195 1.163-.652.854-.636.884-.649 1.183-.526l.719.284c.455.175.437.133.621 1.457.072.516.181.895.303 1.05l.191.243h1.842 1.842l.191-.243c.133-.169.229-.541.315-1.215.068-.535.15-1.008.182-1.051.057-.077.963-.486 1.302-.587.109-.032.481.181 1.037.595.607.452.953.646 1.154.646.238 0 .504-.22 1.576-1.302.709-.716 1.29-1.378 1.29-1.471 0-.242-.151-.496-.8-1.351l-.573-.755.185-.368a6.14 6.14 0 0 0 .298-.719l.113-.351 1.096-.155c1.568-.222 1.537-.174 1.537-2.366 0-2.177.032-2.128-1.514-2.353l-1.087-.171c-.007-.008-.148-.339-.313-.735l-.3-.72.566-.745c.705-.928.823-1.148.756-1.414-.029-.116-.619-.771-1.311-1.456-1.009-.998-1.312-1.245-1.531-1.245-.184 0-.556.21-1.141.646-.556.414-.928.628-1.037.595-.339-.102-1.245-.511-1.302-.588-.032-.043-.115-.524-.184-1.068-.188-1.478-.129-1.442-2.383-1.442h-1.804l-.192.245zm-16.099 1.122c-.25.101-.523.467-.523.701 0 .311.434.658 1.199.957.881.345 1.336.377 1.576.111.219-.242.229-.744.018-.976-.128-.141-1.909-.914-2.035-.884-.014.003-.12.044-.235.091zm35.079.254c-.483.188-.963.425-1.066.527a.77.77 0 0 0-.009.976c.251.277.692.249 1.586-.1.778-.304 1.199-.646 1.199-.973 0-.228-.372-.65-.635-.72-.107-.029-.591.102-1.074.29zm-16.066-.034c.006.411.297 1.965.39 2.076.061.073.4.227.754.341a10.22 10.22 0 0 1 1.211.495c.313.158.676.287.807.287.139 0 .57-.245 1.029-.586.435-.322.824-.586.866-.586s.332.259.646.576l.57.576-.584.767c-.773 1.015-.791 1.089-.431 1.779a10.08 10.08 0 0 1 .505 1.191c.116.344.252.702.301.795.103.192.551.325 1.406.417.976.106.928.054.928.98 0 .94.103.853-1.208 1.03-1.018.137-1.147.234-1.378 1.03-.091.311-.317.868-.503 1.237-.234.466-.317.737-.271.885.037.117.33.558.651.98l.584.767-.57.576c-.314.317-.604.576-.646.576s-.431-.264-.866-.586c-.459-.34-.89-.586-1.029-.586-.131 0-.536.15-.901.334s-.915.407-1.224.497c-.678.197-.781.374-.946 1.636l-.112.855h-.859-.859l-.112-.855c-.166-1.266-.272-1.448-.955-1.645a8.76 8.76 0 0 1-1.222-.492c-.361-.181-.764-.329-.895-.329-.138 0-.57.246-1.029.586-.435.322-.825.586-.866.586s-.332-.259-.646-.576l-.57-.576.584-.767c.321-.422.614-.863.651-.98.047-.148-.036-.419-.271-.885-.186-.369-.412-.926-.503-1.237-.232-.796-.36-.893-1.379-1.03-1.311-.177-1.208-.09-1.208-1.03 0-.924-.052-.869.928-.975 1.294-.14 1.398-.212 1.679-1.157.082-.278.301-.805.485-1.171.232-.461.315-.732.268-.879-.037-.117-.33-.558-.651-.98l-.584-.767.57-.576c.314-.317.607-.576.652-.576s.428.264.852.586c.482.367.864.586 1.023.586.139 0 .509-.129.821-.287s.864-.382 1.225-.499c.784-.253.87-.393 1.039-1.68l.112-.855h.869c.629 0 .869.034.871.122zm-2.083 4.518c-2.329.64-3.879 2.995-3.489 5.302.472 2.8 3.192 4.584 5.909 3.877 2.297-.598 3.863-2.993 3.473-5.31-.464-2.751-3.266-4.59-5.893-3.868zm2.494 1.599c.608.261 1.301.911 1.623 1.522.231.438.26.6.26 1.469s-.029 1.031-.26 1.469a3.91 3.91 0 0 1-1.628 1.54c-.644.293-1.93.293-2.574 0a3.91 3.91 0 0 1-1.627-1.54c-.231-.438-.26-.6-.26-1.469s.029-1.031.26-1.469a3.52 3.52 0 0 1 2.182-1.716c.461-.124 1.518-.023 2.024.194zm-23.712.838c-.308.308-.313.731-.014 1.013.22.206.295.212 2.669.212 2.427 0 2.444-.002 2.655-.226a.68.68 0 0 0-.027-.999l-.24-.24h-2.402-2.402l-.24.24zm39.558 0c-.308.308-.313.731-.014 1.013.22.206.295.212 2.669.212 2.427 0 2.444-.002 2.655-.226a.68.68 0 0 0-.027-.999l-.24-.24h-2.402-2.402l-.24.24zm-14.11 24.853c0 .208-1.112 1.085-1.636 1.29-.784.306-1.999.306-2.783 0-.524-.205-1.636-1.082-1.636-1.29 0-.05 1.3-.088 3.028-.088s3.028.038 3.028.088z" fill="#fff"/><defs><linearGradient id="A" x1="0" y1="39.014" x2="75" y2="39.014" gradientUnits="userSpaceOnUse"><stop stop-color="#00469f"/><stop offset="1" stop-color="#1e79d6"/></linearGradient></defs></svg>
